symbols/web/switch_account/materialsymbolssharp/switch_account_gradN25_40px.svg

<svg xmlns="http://www.w3.org/2000/svg" height="40" width="40"><path d="M22.625 19.708q2.042 0 3.458-1.396 1.417-1.395 1.417-3.437t-1.417-3.437q-1.416-1.396-3.458-1.396-2.042 0-3.437 1.396-1.396 1.395-1.396 3.437t1.396 3.437q1.395 1.396 3.437 1.396Zm-11.083 8.709q2.25-2.792 5.25-4.146t5.833-1.354q2.875 0 5.875 1.354t5.25 4.146V6.25H11.542Zm-2.667 2.708v-27.5h27.5v27.5Zm-5.25 5.25V10.458H6.25V33.75h23.292v2.625Zm19-19.292q-.917 0-1.563-.645-.645-.646-.645-1.563 0-.917.645-1.562.646-.646 1.563-.646.917 0 1.583.646.667.645.667 1.562t-.646 1.563q-.646.645-1.604.645ZM15.5 28.458h14.292q-1.292-1.25-3.209-2.083-1.916-.833-3.958-.833-2 0-3.937.833-1.938.833-3.188 2.083Zm7.125-11.125Z"/></svg>

<svg xmlns="http://www.w3.org/2000/svg" height="40" width="40"><path d="M22.625 19.708Q24.667 19.708 26.083 18.312Q27.5 16.917 27.5 14.875Q27.5 12.833 26.083 11.438Q24.667 10.042 22.625 10.042Q20.583 10.042 19.188 11.438Q17.792 12.833 17.792 14.875Q17.792 16.917 19.188 18.312Q20.583 19.708 22.625 19.708ZM11.542 28.417Q13.792 25.625 16.792 24.271Q19.792 22.917 22.625 22.917Q25.5 22.917 28.5 24.271Q31.5 25.625 33.75 28.417V6.25H11.542ZM8.875 31.125V3.625H36.375V31.125ZM3.625 36.375V10.458H6.25V33.75H29.542V36.375ZM22.625 17.083Q21.708 17.083 21.062 16.438Q20.417 15.792 20.417 14.875Q20.417 13.958 21.062 13.313Q21.708 12.667 22.625 12.667Q23.542 12.667 24.208 13.313Q24.875 13.958 24.875 14.875Q24.875 15.792 24.229 16.438Q23.583 17.083 22.625 17.083ZM15.5 28.458H29.792Q28.5 27.208 26.583 26.375Q24.667 25.542 22.625 25.542Q20.625 25.542 18.688 26.375Q16.75 27.208 15.5 28.458ZM22.625 17.333Q22.625 17.333 22.625 17.333Q22.625 17.333 22.625 17.333Q22.625 17.333 22.625 17.333Q22.625 17.333 22.625 17.333Z"/></svg>
